X: 11
T: The Flowers Of Edinburgh
R: reel
M: 4/4
L: 1/8
K: Gmaj
|:D3E ~G3A|BGBd cBAG|(3FGF EF DEFG|AFdF E2GE|
D3E ~G2A|BGBd efge|dcBA GFGA|1 BGGF GAGE:|2 BGGF GABd||
|:g2gf gbag|f2fe fagf|edef gfed|Beed efge|
dBGB d2Bd|edef g2fe|dcBA GFGA|1 BGGF GABd:|2 BGGF GAGE||


Tune 2549	Setting 15828

